images/footer-page/facebook.svg

<svg width="24" height="24" viewBox="0 0 24 24" fill="none" xmlns="http://www.w3.org/2000/svg">
<path d="M13.8587 24V13.0533H17.5316L18.0826 8.78588H13.8587V6.06176C13.8587 4.82664 14.2003 3.98492 15.9734 3.98492L18.2313 3.98399V0.167076C17.8408 0.116334 16.5005 0 14.9405 0C11.683 0 9.45282 1.98836 9.45282 5.63912V8.78588H5.7688V13.0533H9.45282V24H13.8587Z" fill="white"/>
</svg>

<svg xmlns="http://www.w3.org/2000/svg" width="24" height="24" fill="none"><path fill="#fff" d="M13.859 24V13.053h3.673l.55-4.267H13.86V6.062c0-1.235.341-2.077 2.114-2.077l2.258-.001V.167c-.39-.05-1.73-.167-3.29-.167-3.258 0-5.488 1.988-5.488 5.64v3.146H5.769v4.267h3.684V24h4.406Z"/></svg>
